Newaita-dark/apps/48/cantor.svg

<svg height="48pt" viewBox="0 0 48 48" width="48pt" xmlns="http://www.w3.org/2000/svg" xmlns:xlink="http://www.w3.org/1999/xlink"><linearGradient id="a" gradientUnits="userSpaceOnUse" x1="23.81478" x2="23.81478" y1="42.0509045" y2="44.03547050005"><stop offset="0" stop-opacity=".27451"/><stop offset="1" stop-opacity="0"/></linearGradient><linearGradient id="b"><stop offset="0" stop-opacity=".313726"/><stop offset=".222222" stop-opacity=".27451"/><stop offset="1" stop-opacity="0"/></linearGradient><radialGradient id="c" cx="450.908936" cy="189.579361" gradientTransform="matrix(.00000026 -.117199 -.210958 -.00000015 79.684395 95.392999)" gradientUnits="userSpaceOnUse" r="21.166656" xlink:href="#b"/><radialGradient id="d" cx="450.908936" cy="189.579361" gradientTransform="matrix(-.00000026 .117199 .210958 .00000015 -31.80678 -11.291218)" gradientUnits="userSpaceOnUse" r="21.166656" xlink:href="#b"/><radialGradient id="e" cx="450.908936" cy="189.579361" gradientTransform="matrix(-.00000026 -.117199 .210958 -.00000015 -31.80678 95.392999)" gradientUnits="userSpaceOnUse" r="21.166656" xlink:href="#b"/><radialGradient id="f" cx="450.908936" cy="189.579361" gradientTransform="matrix(.00000026 .117199 -.210958 .00000015 79.684393 -11.291219)" gradientUnits="userSpaceOnUse" r="21.166656" xlink:href="#b"/><linearGradient id="g" gradientUnits="userSpaceOnUse" x1="23.814786" x2="23.814786" y1="42.0509015" y2="4.3441580001"><stop offset="0" stop-color="#a1887f"/><stop offset="1" stop-color="#bcaaa4"/></linearGradient><linearGradient id="h" gradientTransform="matrix(.0848295 0 0 .0838896 2.268074 20.478107)" gradientUnits="userSpaceOnUse" x1="254" x2="254" y1="233.5" y2="-168.666656"><stop offset="0" stop-color="#795548"/><stop offset="1" stop-color="#8d6e63"/></linearGradient><path d="m7.691406 42.050781h32.496094v1.984375h-32.496094zm0 0" fill="url(#a)"/><path d="m40.1875 42.050781h3.96875v-1.984375h-3.96875zm0 0" fill="url(#c)"/><path d="m7.691406 42.050781h-3.96875v1.984375h3.96875zm0 0" fill="url(#d)"/><path d="m7.691406 42.050781h-3.96875v-1.984375h3.96875zm0 0" fill="url(#e)"/><path d="m40.1875 42.050781h3.96875v1.984375h-3.96875zm0 0" fill="url(#f)"/><path d="m4.960938 4.34375h37.707031c1.097656 0 1.984375.890625 1.984375 1.984375v33.738281c0 1.097656-.886719 1.984375-1.984375 1.984375h-37.707031c-1.09375 0-1.984376-.886719-1.984376-1.984375v-33.738281c0-1.09375.890626-1.984375 1.984376-1.984375zm0 0" fill="url(#g)"/><path d="m4.960938 4.34375c-1.097657 0-1.984376.886719-1.984376 1.984375v.496094c0-1.097657.886719-1.984375 1.984376-1.984375h37.707031c1.101562 0 1.984375.886718 1.984375 1.984375v-.496094c0-1.097656-.882813-1.984375-1.984375-1.984375zm0 0" fill="#fbfbfb" fill-opacity=".392157"/><path d="m4.960938 42.050781c-1.097657 0-1.984376-.886719-1.984376-1.984375v-.496094c0 1.097657.886719 1.984376 1.984376 1.984376h37.707031c1.101562 0 1.984375-.886719 1.984375-1.984376v.496094c0 1.097656-.882813 1.984375-1.984375 1.984375zm0 0" fill-opacity=".235294"/><path d="m4.960938 4.203125c-1.175782 0-2.125.949219-2.125 2.125v33.738281c0 1.175782.949218 2.125 2.125 2.125h37.707031c1.175781 0 2.125-.949218 2.125-2.125v-33.738281c0-1.175781-.949219-2.125-2.125-2.125zm0 .28125h37.707031c1.023437 0 1.84375.820313 1.84375 1.84375v33.738281c0 1.023438-.820313 1.84375-1.84375 1.84375h-37.707031c-1.023438 0-1.84375-.820312-1.84375-1.84375v-33.738281c0-1.023437.820312-1.84375 1.84375-1.84375zm0 0" fill="#212121"/><path d="m6.449219 6.328125h34.730469c.820312 0 1.488281.667969 1.488281 1.488281v30.761719c0 .820313-.667969 1.488281-1.488281 1.488281h-34.730469c-.820313 0-1.488281-.667968-1.488281-1.488281v-30.761719c0-.820312.667968-1.488281 1.488281-1.488281zm0 0" fill="url(#h)"/><path d="m4.960938 38.578125v.496094c0 .824219.664062 1.488281 1.488281 1.488281h34.730469c.824218 0 1.488281-.664062 1.488281-1.488281v-.496094c0 .824219-.664063 1.488281-1.488281 1.488281h-34.730469c-.824219 0-1.488281-.664062-1.488281-1.488281zm0 0" fill="#fff" fill-opacity=".392157"/><path d="m6.449219 6.328125c-.824219 0-1.488281.664063-1.488281 1.488281v.746094c0-.824219.664062-1.488281 1.488281-1.488281h34.730469c.824218 0 1.488281.664062 1.488281 1.488281v-.746094c0-.824218-.664063-1.488281-1.488281-1.488281zm0 0" fill-opacity=".235294"/><path d="m68.785098-147.506445h370.42296c8.749164 0 15.873484 7.124319 15.873484 15.873484v328.093668c0 8.749165-7.12432 15.873485-15.873484 15.873485h-370.42296c-8.749164 0-15.873484-7.12432-15.873484-15.873485v-328.093668c0-8.749165 7.12432-15.873484 15.873484-15.873484zm0 0" fill="none" stroke="#212121" stroke-linecap="round" stroke-linejoin="round" stroke-width="3" transform="matrix(.093759 0 0 .093759 0 20.158175)"/><g fill="#fff" fill-opacity=".392157"><path d="m25.800781 12.769531c-.636719 0-1.203125.398438-1.414062 1l-4.699219 13.320313-2.441406-5.492188c-.242188-.542968-.777344-.890625-1.371094-.890625h-2.976562c-.539063-.007812-1.039063.277344-1.308594.746094-.273438.464844-.273438 1.039063 0 1.507813.269531.464843.769531.75 1.308594.742187h2.003906l3.1875 7.167969c.410156-.679688.761718-1.148438.761718-.726563s-.179687 1.023438-.386718 1.578125l.011718.023438c.054688.117187.121094.226562.203126.324218.878906-1.097656 2.160156-2.578124 2.160156-1.925781 0 .496094-.25 1.484375-.375 2.351563.371094-.167969.65625-.480469.792968-.863282l5.601563-15.867187h6.878906c.539063.003906 1.039063-.28125 1.308594-.746094.273437-.464843.273437-1.039062 0-1.507812-.269531-.464844-.769531-.75-1.308594-.742188zm0 0"/><path d="m27.765625 20.691406c-.554687 0-1.0625.308594-1.320313.800782-.257812.492187-.222656 1.085937.09375 1.542968l2.421876 3.636719-2.421876 3.632813c-.417968.605468-.332031 1.425781.199219 1.933593l.054688-.109375s1.984375-3.96875 1.984375-2.976562c0 .992187-.992188 2.976562-.992188 2.976562s2.976563-3.96875 2.976563-2.976562c0 .070312-.007813.152344-.015625.238281l.015625-.019531 1.199219 1.796875c.46875-1.167969.9375-2.59375 1.277343-3.480469l-.675781-1.015625 2.421875-3.636719c.320313-.464844.351563-1.066406.082031-1.5625-.269531-.496094-.792968-.796875-1.359375-.78125-.492187.011719-.949219.269532-1.214843.683594l-1.730469 2.59375-1.730469-2.59375c-.277344-.429688-.753906-.6875-1.265625-.683594zm5.839844 7.546875c-.257813 1.269531-.832031 2.808594-1.050781 3.816407.234374.308593.578124.515624.964843.578124.550781-.566406 1.160157-1.492187 1.597657-2.085937-.035157-.085937-.082032-.164063-.132813-.242187zm1.640625 3.015625c-.230469.378906-.5.792969-.726563 1.183594.417969-.25.691407-.691406.726563-1.183594zm0 0"/></g></svg>

<?xml version="1.0" encoding="UTF-8"?>
<svg xmlns="http://www.w3.org/2000/svg" xmlns:xlink="http://www.w3.org/1999/xlink" width="48pt" height="48pt" viewBox="0 0 48 48" version="1.1">
<defs>
<linearGradient id="linear0" gradientUnits="userSpaceOnUse" x1="254" y1="233.5" x2="254" y2="254.666672" gradientTransform="matrix(0.093759,0,0,0.093759,-0.00000572259,20.158178)">
<stop offset="0" style="stop-color:rgb(0%,0%,0%);stop-opacity:0.27451;"/>
<stop offset="1" style="stop-color:rgb(0%,0%,0%);stop-opacity:0;"/>
</linearGradient>
<radialGradient id="radial0" gradientUnits="userSpaceOnUse" cx="450.908936" cy="189.579361" fx="450.908936" fy="189.579361" r="21.166656" gradientTransform="matrix(0.000000261256,-0.117199,-0.210958,-0.000000152308,79.684395,95.392999)">
<stop offset="0" style="stop-color:rgb(0%,0%,0%);stop-opacity:0.313726;"/>
<stop offset="0.222222" style="stop-color:rgb(0%,0%,0%);stop-opacity:0.27451;"/>
<stop offset="1" style="stop-color:rgb(0%,0%,0%);stop-opacity:0;"/>
</radialGradient>
<radialGradient id="radial1" gradientUnits="userSpaceOnUse" cx="450.908936" cy="189.579361" fx="450.908936" fy="189.579361" r="21.166656" gradientTransform="matrix(-0.000000261256,0.117199,0.210958,0.000000152308,-31.80678,-11.291218)">
<stop offset="0" style="stop-color:rgb(0%,0%,0%);stop-opacity:0.313726;"/>
<stop offset="0.222222" style="stop-color:rgb(0%,0%,0%);stop-opacity:0.27451;"/>
<stop offset="1" style="stop-color:rgb(0%,0%,0%);stop-opacity:0;"/>
</radialGradient>
<radialGradient id="radial2" gradientUnits="userSpaceOnUse" cx="450.908936" cy="189.579361" fx="450.908936" fy="189.579361" r="21.166656" gradientTransform="matrix(-0.000000261256,-0.117199,0.210958,-0.000000152308,-31.80678,95.392999)">
<stop offset="0" style="stop-color:rgb(0%,0%,0%);stop-opacity:0.313726;"/>
<stop offset="0.222222" style="stop-color:rgb(0%,0%,0%);stop-opacity:0.27451;"/>
<stop offset="1" style="stop-color:rgb(0%,0%,0%);stop-opacity:0;"/>
</radialGradient>
<radialGradient id="radial3" gradientUnits="userSpaceOnUse" cx="450.908936" cy="189.579361" fx="450.908936" fy="189.579361" r="21.166656" gradientTransform="matrix(0.000000261256,0.117199,-0.210958,0.000000152308,79.684393,-11.291219)">
<stop offset="0" style="stop-color:rgb(0%,0%,0%);stop-opacity:0.313726;"/>
<stop offset="0.222222" style="stop-color:rgb(0%,0%,0%);stop-opacity:0.27451;"/>
<stop offset="1" style="stop-color:rgb(0%,0%,0%);stop-opacity:0;"/>
</radialGradient>
<linearGradient id="linear1" gradientUnits="userSpaceOnUse" x1="254" y1="233.5" x2="254" y2="-168.666656" gradientTransform="matrix(0.093759,0,0,0.093759,0,20.158175)">
<stop offset="0" style="stop-color:rgb(63.137257%,53.333336%,49.803922%);stop-opacity:1;"/>
<stop offset="1" style="stop-color:rgb(73.725492%,66.666669%,64.313728%);stop-opacity:1;"/>
</linearGradient>
<linearGradient id="linear2" gradientUnits="userSpaceOnUse" x1="254" y1="233.5" x2="254" y2="-168.666656" gradientTransform="matrix(0.0848295,0,0,0.0838896,2.268074,20.478107)">
<stop offset="0" style="stop-color:rgb(47.450981%,33.333334%,28.235295%);stop-opacity:1;"/>
<stop offset="1" style="stop-color:rgb(55.29412%,43.137255%,38.82353%);stop-opacity:1;"/>
</linearGradient>
</defs>
<g id="surface1">
<path style=" stroke:none;fill-rule:nonzero;fill:url(#linear0);" d="M 7.691406 42.050781 L 40.1875 42.050781 L 40.1875 44.035156 L 7.691406 44.035156 Z M 7.691406 42.050781 "/>
<path style=" stroke:none;fill-rule:nonzero;fill:url(#radial0);" d="M 40.1875 42.050781 L 44.15625 42.050781 L 44.15625 40.066406 L 40.1875 40.066406 Z M 40.1875 42.050781 "/>
<path style=" stroke:none;fill-rule:nonzero;fill:url(#radial1);" d="M 7.691406 42.050781 L 3.722656 42.050781 L 3.722656 44.035156 L 7.691406 44.035156 Z M 7.691406 42.050781 "/>
<path style=" stroke:none;fill-rule:nonzero;fill:url(#radial2);" d="M 7.691406 42.050781 L 3.722656 42.050781 L 3.722656 40.066406 L 7.691406 40.066406 Z M 7.691406 42.050781 "/>
<path style=" stroke:none;fill-rule:nonzero;fill:url(#radial3);" d="M 40.1875 42.050781 L 44.15625 42.050781 L 44.15625 44.035156 L 40.1875 44.035156 Z M 40.1875 42.050781 "/>
<path style=" stroke:none;fill-rule:nonzero;fill:url(#linear1);" d="M 4.960938 4.34375 L 42.667969 4.34375 C 43.765625 4.34375 44.652344 5.234375 44.652344 6.328125 L 44.652344 40.066406 C 44.652344 41.164062 43.765625 42.050781 42.667969 42.050781 L 4.960938 42.050781 C 3.867188 42.050781 2.976562 41.164062 2.976562 40.066406 L 2.976562 6.328125 C 2.976562 5.234375 3.867188 4.34375 4.960938 4.34375 Z M 4.960938 4.34375 "/>
<path style=" stroke:none;fill-rule:nonzero;fill:rgb(98.431373%,98.431373%,98.431373%);fill-opacity:0.392157;" d="M 4.960938 4.34375 C 3.863281 4.34375 2.976562 5.230469 2.976562 6.328125 L 2.976562 6.824219 C 2.976562 5.726562 3.863281 4.839844 4.960938 4.839844 L 42.667969 4.839844 C 43.769531 4.839844 44.652344 5.726562 44.652344 6.824219 L 44.652344 6.328125 C 44.652344 5.230469 43.769531 4.34375 42.667969 4.34375 Z M 4.960938 4.34375 "/>
<path style=" stroke:none;fill-rule:nonzero;fill:rgb(0%,0%,0%);fill-opacity:0.235294;" d="M 4.960938 42.050781 C 3.863281 42.050781 2.976562 41.164062 2.976562 40.066406 L 2.976562 39.570312 C 2.976562 40.667969 3.863281 41.554688 4.960938 41.554688 L 42.667969 41.554688 C 43.769531 41.554688 44.652344 40.667969 44.652344 39.570312 L 44.652344 40.066406 C 44.652344 41.164062 43.769531 42.050781 42.667969 42.050781 Z M 4.960938 42.050781 "/>
<path style=" stroke:none;fill-rule:nonzero;fill:rgb(12.941177%,12.941177%,12.941177%);fill-opacity:1;" d="M 4.960938 4.203125 C 3.785156 4.203125 2.835938 5.152344 2.835938 6.328125 L 2.835938 40.066406 C 2.835938 41.242188 3.785156 42.191406 4.960938 42.191406 L 42.667969 42.191406 C 43.84375 42.191406 44.792969 41.242188 44.792969 40.066406 L 44.792969 6.328125 C 44.792969 5.152344 43.84375 4.203125 42.667969 4.203125 Z M 4.960938 4.484375 L 42.667969 4.484375 C 43.691406 4.484375 44.511719 5.304688 44.511719 6.328125 L 44.511719 40.066406 C 44.511719 41.089844 43.691406 41.910156 42.667969 41.910156 L 4.960938 41.910156 C 3.9375 41.910156 3.117188 41.089844 3.117188 40.066406 L 3.117188 6.328125 C 3.117188 5.304688 3.9375 4.484375 4.960938 4.484375 Z M 4.960938 4.484375 "/>
<path style=" stroke:none;fill-rule:nonzero;fill:url(#linear2);" d="M 6.449219 6.328125 L 41.179688 6.328125 C 42 6.328125 42.667969 6.996094 42.667969 7.816406 L 42.667969 38.578125 C 42.667969 39.398438 42 40.066406 41.179688 40.066406 L 6.449219 40.066406 C 5.628906 40.066406 4.960938 39.398438 4.960938 38.578125 L 4.960938 7.816406 C 4.960938 6.996094 5.628906 6.328125 6.449219 6.328125 Z M 6.449219 6.328125 "/>
<path style=" stroke:none;fill-rule:nonzero;fill:rgb(100%,100%,100%);fill-opacity:0.392157;" d="M 4.960938 38.578125 L 4.960938 39.074219 C 4.960938 39.898438 5.625 40.5625 6.449219 40.5625 L 41.179688 40.5625 C 42.003906 40.5625 42.667969 39.898438 42.667969 39.074219 L 42.667969 38.578125 C 42.667969 39.402344 42.003906 40.066406 41.179688 40.066406 L 6.449219 40.066406 C 5.625 40.066406 4.960938 39.402344 4.960938 38.578125 Z M 4.960938 38.578125 "/>
<path style=" stroke:none;fill-rule:nonzero;fill:rgb(0%,0%,0%);fill-opacity:0.235294;" d="M 6.449219 6.328125 C 5.625 6.328125 4.960938 6.992188 4.960938 7.816406 L 4.960938 8.5625 C 4.960938 7.738281 5.625 7.074219 6.449219 7.074219 L 41.179688 7.074219 C 42.003906 7.074219 42.667969 7.738281 42.667969 8.5625 L 42.667969 7.816406 C 42.667969 6.992188 42.003906 6.328125 41.179688 6.328125 Z M 6.449219 6.328125 "/>
<path style="fill:none;stroke-width:3;stroke-linecap:round;stroke-linejoin:round;stroke:rgb(12.941177%,12.941177%,12.941177%);stroke-opacity:1;stroke-miterlimit:4;" d="M 68.785098 -147.506445 L 439.208058 -147.506445 C 447.957222 -147.506445 455.081542 -140.382126 455.081542 -131.632961 L 455.081542 196.460707 C 455.081542 205.209872 447.957222 212.334192 439.208058 212.334192 L 68.785098 212.334192 C 60.035934 212.334192 52.911614 205.209872 52.911614 196.460707 L 52.911614 -131.632961 C 52.911614 -140.382126 60.035934 -147.506445 68.785098 -147.506445 Z M 68.785098 -147.506445 " transform="matrix(0.093759,0,0,0.093759,0,20.158175)"/>
<path style=" stroke:none;fill-rule:nonzero;fill:rgb(100%,100%,100%);fill-opacity:0.392157;" d="M 25.800781 12.769531 C 25.164062 12.769531 24.597656 13.167969 24.386719 13.769531 L 19.6875 27.089844 L 17.246094 21.597656 C 17.003906 21.054688 16.46875 20.707031 15.875 20.707031 L 12.898438 20.707031 C 12.359375 20.699219 11.859375 20.984375 11.589844 21.453125 C 11.316406 21.917969 11.316406 22.492188 11.589844 22.960938 C 11.859375 23.425781 12.359375 23.710938 12.898438 23.703125 L 14.902344 23.703125 L 18.089844 30.871094 C 18.5 30.191406 18.851562 29.722656 18.851562 30.144531 C 18.851562 30.566406 18.671875 31.167969 18.464844 31.722656 L 18.476562 31.746094 C 18.53125 31.863281 18.597656 31.972656 18.679688 32.070312 C 19.558594 30.972656 20.839844 29.492188 20.839844 30.144531 C 20.839844 30.640625 20.589844 31.628906 20.464844 32.496094 C 20.835938 32.328125 21.121094 32.015625 21.257812 31.632812 L 26.859375 15.765625 L 33.738281 15.765625 C 34.277344 15.769531 34.777344 15.484375 35.046875 15.019531 C 35.320312 14.554688 35.320312 13.980469 35.046875 13.511719 C 34.777344 13.046875 34.277344 12.761719 33.738281 12.769531 Z M 25.800781 12.769531 "/>
<path style=" stroke:none;fill-rule:nonzero;fill:rgb(100%,100%,100%);fill-opacity:0.392157;" d="M 27.765625 20.691406 C 27.210938 20.691406 26.703125 21 26.445312 21.492188 C 26.1875 21.984375 26.222656 22.578125 26.539062 23.035156 L 28.960938 26.671875 L 26.539062 30.304688 C 26.121094 30.910156 26.207031 31.730469 26.738281 32.238281 L 26.792969 32.128906 C 26.792969 32.128906 28.777344 28.160156 28.777344 29.152344 C 28.777344 30.144531 27.785156 32.128906 27.785156 32.128906 C 27.785156 32.128906 30.761719 28.160156 30.761719 29.152344 C 30.761719 29.222656 30.753906 29.304688 30.746094 29.390625 L 30.761719 29.371094 L 31.960938 31.167969 C 32.429688 30 32.898438 28.574219 33.238281 27.6875 L 32.5625 26.671875 L 34.984375 23.035156 C 35.304688 22.570312 35.335938 21.96875 35.066406 21.472656 C 34.796875 20.976562 34.273438 20.675781 33.707031 20.691406 C 33.214844 20.703125 32.757812 20.960938 32.492188 21.375 L 30.761719 23.96875 L 29.03125 21.375 C 28.753906 20.945312 28.277344 20.6875 27.765625 20.691406 Z M 33.605469 28.238281 C 33.347656 29.507812 32.773438 31.046875 32.554688 32.054688 C 32.789062 32.363281 33.132812 32.570312 33.519531 32.632812 C 34.070312 32.066406 34.679688 31.140625 35.117188 30.546875 C 35.082031 30.460938 35.035156 30.382812 34.984375 30.304688 Z M 35.246094 31.253906 C 35.015625 31.632812 34.746094 32.046875 34.519531 32.4375 C 34.9375 32.1875 35.210938 31.746094 35.246094 31.253906 Z M 35.246094 31.253906 "/>
</g>
</svg>
